app/assets/images/heroicons/micro/trophy.svg

<svg width="16" height="16" viewBox="0 0 16 16" fill="none" xmlns="http://www.w3.org/2000/svg">
<path fill-rule="evenodd" clip-rule="evenodd" d="M12 1.6891C12 1.43688 11.8122 1.22372 11.5615 1.19596C10.3922 1.06648 9.20386 1 8 1C6.79614 1 5.60781 1.06648 4.43848 1.19596C4.1878 1.22372 4 1.43688 4 1.6891V2.25577C3.18894 2.36028 2.38761 2.49614 1.59726 2.66213C1.25751 2.73349 1.01113 3.02869 1.00169 3.37573C1.00057 3.41703 1 3.45846 1 3.5C1 5.93557 2.93493 7.91922 5.35145 7.99759C5.8171 8.40933 6.37941 8.71425 7 8.87398V10H6C5.44772 10 5 10.4477 5 11V13H4.33333C3.59695 13 3 13.597 3 14.3333C3 14.7015 3.29848 15 3.66667 15H12.3333C12.7015 15 13 14.7015 13 14.3333C13 13.597 12.403 13 11.6667 13H11V11C11 10.4477 10.5523 10 10 10H9V8.87398C9.62059 8.71425 10.1829 8.40933 10.6485 7.99759C13.0651 7.91922 15 5.93557 15 3.5C15 3.45846 14.9994 3.41703 14.9983 3.37573C14.9889 3.02869 14.7425 2.73349 14.4027 2.66213C13.6124 2.49614 12.8111 2.36028 12 2.25577V1.6891ZM4 3.76881C3.51008 3.8352 3.02401 3.91362 2.54211 4.00375C2.7054 4.96951 3.33019 5.77837 4.18174 6.1956C4.06365 5.81806 4 5.41646 4 5V3.76881ZM12 3.76881C12.4899 3.8352 12.976 3.91362 13.4579 4.00375C13.2946 4.96951 12.6698 5.77837 11.8183 6.1956C11.9364 5.81806 12 5.41646 12 5V3.76881Z" fill="black"/>
</svg>

<svg xmlns="http://www.w3.org/2000/svg" viewBox="0 0 16 16" fill="currentColor" aria-hidden="true" data-slot="icon">
  <path fill-rule="evenodd" d="M12 1.69a.494.494 0 0 0-.438-.494 32.352 32.352 0 0 0-7.124 0A.494.494 0 0 0 4 1.689v.567c-.811.104-1.612.24-2.403.406a.75.75 0 0 0-.595.714 4.5 4.5 0 0 0 4.35 4.622A3.99 3.99 0 0 0 7 8.874V10H6a1 1 0 0 0-1 1v2h-.667C3.597 13 3 13.597 3 14.333c0 .368.298.667.667.667h8.666a.667.667 0 0 0 .667-.667c0-.736-.597-1.333-1.333-1.333H11v-2a1 1 0 0 0-1-1H9V8.874a3.99 3.99 0 0 0 1.649-.876 4.5 4.5 0 0 0 4.35-4.622.75.75 0 0 0-.596-.714A30.897 30.897 0 0 0 12 2.256v-.567ZM4 3.768c-.49.066-.976.145-1.458.235a3.004 3.004 0 0 0 1.64 2.192A3.999 3.999 0 0 1 4 5V3.769Zm8 0c.49.066.976.145 1.458.235a3.004 3.004 0 0 1-1.64 2.192C11.936 5.818 12 5.416 12 5V3.769Z" clip-rule="evenodd"/>
</svg>
